apps/web/public/images/services/pro-connect-logo.svg

<svg width="68" height="58" viewBox="6 0 68 58" fill="none" xmlns="http://www.w3.org/2000/svg">
    <path d="M46.992 19.0979L31.998 10.4209L17.004 19.1819C16.9114 19.2347 16.8344 19.3109 16.7807 19.4029C16.727 19.4949 16.6984 19.5994 16.698 19.7059V36.6539C16.7039 36.7593 16.7347 36.8617 16.7879 36.9528C16.8411 37.0439 16.9151 37.1211 17.004 37.1779L31.996 45.7779L46.99 37.0719C47.0789 37.0151 47.153 36.938 47.2063 36.8469C47.2595 36.7558 47.2902 36.6533 47.296 36.5479V19.6259C47.2966 19.5189 47.2687 19.4136 47.2153 19.3209C47.1619 19.2281 47.0849 19.1512 46.992 19.0979Z" fill="#000091"/>
    <path d="M26.641 19.5979L21.612 28.2259L17.055 19.0509L22.445 15.9379L26.934 19.0979L26.641 19.5979ZM47.297 36.5779V19.6199C47.297 19.5134 47.2686 19.4089 47.2149 19.317C47.1611 19.2251 47.0838 19.1491 46.991 19.0969L31.998 10.4209" fill="#FCC63A"/>
    <path d="M16.7 36.5779L32 10.4209V45.7829L17.004 37.1779C16.9151 37.1211 16.8411 37.0439 16.7879 36.9528C16.7347 36.8617 16.7039 36.7593 16.698 36.6539V19.7059L16.7 36.5779ZM41.369 15.8429L46.827 18.9979L42.338 28.1479L36.951 18.9119L41.369 15.8429Z" fill="#0063CB"/>
    <path d="M51.606 16.3029L32.416 5.28293C32.2868 5.21856 32.1444 5.18506 32 5.18506C31.8556 5.18506 31.7132 5.21856 31.584 5.28293L12.394 16.3029C12.2785 16.3798 12.1827 16.4828 12.1142 16.6035C12.0458 16.7242 12.0067 16.8593 12 16.9979V38.9979C12.0059 39.1374 12.0446 39.2735 12.1131 39.3951C12.1816 39.5168 12.2778 39.6205 12.394 39.6979L31.583 50.7179C31.7122 50.7823 31.8546 50.8158 31.999 50.8158C32.1434 50.8158 32.2858 50.7823 32.415 50.7179L51.606 39.6979C51.7222 39.6205 51.8184 39.5168 51.8869 39.3951C51.9554 39.2735 51.9941 39.1374 52 38.9979V16.9979C51.9933 16.8593 51.9542 16.7242 51.8858 16.6035C51.8173 16.4828 51.7215 16.3798 51.606 16.3029ZM22.789 34.0589H22.868C22.826 34.0589 22.789 34.0659 22.789 34.1089C22.789 34.2089 22.94 34.1089 22.989 34.2089C22.7514 34.2154 22.5257 34.3145 22.36 34.4849C22.36 34.5359 22.46 34.5359 22.511 34.5359C22.436 34.6359 22.285 34.5859 22.234 34.6869C22.2611 34.714 22.2961 34.7315 22.334 34.7369C22.284 34.7369 22.234 34.7369 22.234 34.7879V34.9389C22.108 34.9389 22.058 35.0389 21.957 35.0899C22.157 35.2409 22.284 35.0899 22.485 35.0899C21.957 35.2899 21.529 35.5679 21.001 35.7189C20.901 35.7189 21.001 35.8699 20.901 35.8699C21.052 35.9699 21.128 35.8199 21.278 35.8199C20.624 36.1969 19.945 36.5199 19.241 36.9519C19.1868 37.0059 19.1516 37.0761 19.141 37.1519H18.941C18.841 37.2019 18.891 37.3279 18.79 37.4289C19.016 37.5799 19.29 37.2289 19.444 37.4289C19.494 37.4289 19.344 37.4789 19.244 37.4789C19.194 37.4789 19.194 37.5789 19.144 37.5789H18.99C18.89 37.6539 18.79 37.7049 18.79 37.8549C18.7466 37.8469 18.7019 37.8522 18.6615 37.87C18.6212 37.8879 18.5872 37.9175 18.564 37.9549C19.638 37.9507 20.7027 37.755 21.708 37.3769C22.4877 36.9799 23.1938 36.4527 23.796 35.8179C23.8231 35.8449 23.8406 35.8801 23.846 35.9179C23.6989 36.3544 23.4166 36.7327 23.04 36.9979C22.763 37.1489 22.562 37.3749 22.34 37.4759C22.1917 37.5589 22.0487 37.651 21.912 37.7519C21.2797 37.9486 20.6306 38.0866 19.973 38.1639L19.668 38.2079C19.443 38.2409 19.219 38.2769 18.997 38.3159L17.004 37.1779C16.9311 37.132 16.868 37.072 16.8186 37.0014C16.7691 36.9309 16.7343 36.8512 16.716 36.7669C16.7493 36.7491 16.7808 36.728 16.81 36.7039C16.779 36.671 16.7401 36.6466 16.697 36.6329V35.9829C17.7449 35.7966 18.7655 35.4802 19.735 35.0409C18.8177 34.4034 17.7868 33.9475 16.698 33.6979V32.1829C17.2531 32.2739 17.8008 32.4049 18.337 32.5749C18.7498 32.7266 19.1459 32.9203 19.519 33.1529C19.6656 33.2939 19.8257 33.4202 19.997 33.5299C20.1177 33.5988 20.2525 33.6391 20.3912 33.6478C20.5299 33.6564 20.6687 33.6332 20.797 33.5799H21.127C21.8434 33.4615 22.5135 33.1484 23.064 32.6749C23.064 32.7249 23.114 32.7249 23.164 32.7249C23.0857 33.1236 22.941 33.5062 22.736 33.8569C22.739 33.9079 22.688 34.0089 22.789 34.0589ZM25.606 37.6299C25.857 37.5299 26.006 37.3529 26.235 37.2529C26.185 37.3029 26.185 37.4039 26.135 37.4529C25.9474 37.5702 25.7707 37.704 25.607 37.8529C25.0413 38.3515 24.5116 38.8895 24.022 39.4629C23.77 39.7629 23.494 40.0409 23.222 40.3179C23.1256 40.408 23.0219 40.49 22.912 40.5629L20.385 39.1129C20.7444 39.1433 21.1063 39.1255 21.461 39.0599C21.7554 38.9774 22.0416 38.8679 22.316 38.7329V38.8329C23.016 38.5559 23.548 37.9269 24.253 37.7009C24.278 37.7009 24.379 37.8009 24.479 37.7509C24.6601 37.5265 24.8904 37.3466 25.152 37.2253C25.4136 37.1039 25.6997 37.0443 25.988 37.0509C25.988 37.1009 25.988 37.1509 26.038 37.1509H26.063C25.912 37.2769 25.736 37.4019 25.563 37.5279C25.506 37.5799 25.556 37.6299 25.606 37.6299ZM16.698 31.4659V31.2799C17.2161 31.1444 17.7505 31.0812 18.286 31.0919C18.4443 31.0667 18.6057 31.0667 18.764 31.0919C18.0584 31.0912 17.3585 31.2179 16.698 31.4659ZM47.298 36.5539C47.2922 36.6593 47.2615 36.7618 47.2083 36.8529C47.155 36.944 47.0809 37.0211 46.992 37.0779L36.913 42.9289C35.7558 42.5977 34.618 42.2021 33.505 41.7439C33.3437 41.393 33.256 41.0127 33.2474 40.6266C33.2388 40.2405 33.3095 39.8567 33.455 39.4989C33.5349 39.191 33.6531 38.8943 33.807 38.6159C33.832 38.5909 33.857 38.5659 33.857 38.5399C33.8636 38.5399 33.87 38.5373 33.8747 38.5326C33.8794 38.5279 33.882 38.5216 33.882 38.5149C33.9931 38.3204 34.1191 38.1349 34.259 37.9599L34.274 37.9449L34.294 37.9239L34.309 37.9089C34.309 37.8839 34.334 37.8589 34.359 37.8329C34.384 37.7819 34.434 37.7569 34.459 37.7069C34.6346 37.5211 34.8286 37.3535 35.038 37.2069C35.2507 37.1299 35.4695 37.0707 35.692 37.0299C36.503 37.0896 37.3095 37.1992 38.107 37.3579C38.205 37.3727 38.2992 37.4066 38.384 37.4579C38.6851 37.5166 38.9962 37.4994 39.289 37.4079C39.4799 37.373 39.6587 37.2898 39.8084 37.1662C39.9581 37.0426 40.0736 36.8828 40.144 36.7019C40.232 36.5407 40.2823 36.3616 40.2909 36.1782C40.2996 35.9947 40.2664 35.8117 40.194 35.6429C40.016 35.3669 40.181 35.2059 40.375 35.0529L40.443 34.9979C40.5294 34.9367 40.6071 34.8641 40.674 34.7819C40.8 34.5299 40.574 34.3819 40.523 34.1519C40.473 34.0519 40.297 34.1019 40.196 33.9519C40.548 33.8009 41.051 33.5229 40.825 33.0949C40.674 32.8679 40.448 32.4649 40.725 32.2379C41.077 32.0379 41.58 32.0869 41.731 31.7589C41.7804 31.5683 41.7794 31.3681 41.7282 31.1779C41.6771 30.9877 41.5774 30.8141 41.439 30.6739L41.364 30.5659C41.289 30.4589 41.215 30.3519 41.153 30.2459C40.9941 29.9821 40.8177 29.7292 40.625 29.4889C40.405 29.1775 40.2275 28.8382 40.097 28.4799C39.946 28.1019 40.147 27.7739 40.147 27.3959C40.1618 26.6678 40.0512 25.9425 39.82 25.2519C39.694 24.8989 39.644 24.5209 39.493 24.1929C39.474 23.9821 39.3956 23.781 39.267 23.6129C39.2421 23.5618 39.2292 23.5058 39.2292 23.4489C39.2292 23.3921 39.2421 23.336 39.267 23.2849C39.472 23.1404 39.6656 22.9803 39.846 22.8059C39.9017 22.6836 39.9122 22.5455 39.8756 22.4162C39.839 22.2869 39.7576 22.1748 39.646 22.0999C39.319 21.9489 39.346 22.4279 39.118 22.5289H38.967C38.917 22.4029 39.017 22.3519 39.118 22.2519C39.118 22.2019 39.118 22.1009 39.068 22.1009C38.868 22.1009 38.691 22.0499 38.64 21.9499C38.158 21.3493 37.5113 20.9024 36.779 20.6639C36.967 20.7217 37.1615 20.7553 37.358 20.7639C37.6956 20.8353 38.0471 20.8004 38.364 20.6639C38.591 20.5879 38.641 20.1849 38.741 19.9579C38.7613 19.848 38.7583 19.7351 38.7323 19.6264C38.7063 19.5178 38.6578 19.4157 38.59 19.3269C38.3629 18.9968 38.0495 18.7353 37.684 18.5709C37.508 18.4949 37.231 18.3439 37.005 18.2179C36.928 18.1638 36.8434 18.1213 36.754 18.0919C33.789 16.6069 27.685 17.8919 27.22 18.0919H27.211C26.7825 18.2162 26.3648 18.3751 25.962 18.5669C25.4074 18.7728 24.9066 19.1015 24.497 19.5284C24.0875 19.9553 23.7798 20.4693 23.597 21.0319C23.026 21.407 22.5658 21.928 22.264 22.5409C21.836 23.3409 21.208 24.0499 21.308 24.9549C21.408 25.7349 21.585 26.4389 21.736 27.2439C21.7789 27.516 21.8459 27.7837 21.936 28.0439C22.036 28.3199 21.936 28.6729 22.087 28.8989C22.162 29.0499 22.112 29.2259 22.314 29.3269V29.5269C22.364 29.5769 22.364 29.6269 22.465 29.6269V29.8269C22.8997 30.2504 23.2723 30.7332 23.572 31.2609C23.672 31.5369 23.094 31.4119 22.872 31.3109C22.4565 31.0404 22.0762 30.7193 21.74 30.3549C21.7125 30.3818 21.6946 30.4169 21.689 30.4549C21.889 30.8069 22.595 31.2349 22.217 31.4609C22.017 31.5609 21.789 31.3099 21.588 31.5119C21.538 31.5869 21.588 31.6879 21.588 31.7879C21.311 31.5879 21.01 31.6879 20.733 31.5879C20.533 31.5379 20.481 31.1609 20.255 31.1609C19.6585 31.0154 19.0537 30.9062 18.444 30.8339C17.8679 30.7475 17.2872 30.6944 16.705 30.6749V19.7059C16.7054 19.5994 16.734 19.4949 16.7877 19.4029C16.8414 19.3109 16.9184 19.2347 17.011 19.1819L31.998 10.4209L46.992 19.0979C47.0846 19.1506 47.1617 19.2268 47.2154 19.3188C47.2692 19.4108 47.2977 19.5154 47.298 19.6219V36.5539ZM39.344 28.2929C39.3138 28.3399 39.2719 28.3783 39.2225 28.4044C39.1731 28.4305 39.1178 28.4434 39.062 28.4419C38.9618 28.5263 38.8676 28.6175 38.78 28.7149C38.88 28.7149 38.78 28.8639 38.88 28.8639C38.675 29.0869 38.957 29.5579 38.675 29.6569C38.3059 29.7559 37.9171 29.7559 37.548 29.6569C37.6029 29.6451 37.6589 29.6398 37.715 29.6409H37.8C37.8627 29.6485 37.9263 29.6404 37.9851 29.6174C38.0439 29.5943 38.0961 29.5571 38.137 29.5089V29.3089C38.137 29.2589 38.086 29.2589 38.037 29.2589C38.0107 29.287 37.9752 29.3048 37.937 29.3089C37.9345 29.2639 37.9185 29.2207 37.891 29.185C37.8635 29.1493 37.8259 29.1228 37.783 29.1089C37.6501 29.1267 37.5148 29.111 37.3894 29.0633C37.2641 29.0157 37.1526 28.9375 37.065 28.8359C37.2006 28.7708 37.3542 28.7532 37.501 28.7859C37.629 28.7859 37.578 28.5629 37.732 28.4639H37.886C38.193 28.0919 38.757 27.9929 38.86 27.6209C38.86 27.5209 38.578 27.5209 38.373 27.4719C38.0989 27.4383 37.821 27.4553 37.553 27.5219C37.1932 27.5716 36.8405 27.6632 36.502 27.7949C36.7823 27.5892 37.094 27.4302 37.425 27.3239C37.6574 27.2344 37.8978 27.1674 38.143 27.1239L38.275 27.0979L38.408 27.0709C38.5894 27.0167 38.7826 27.0167 38.964 27.0709C39.195 27.1709 39.579 27.1709 39.63 27.3189C39.73 27.5919 39.476 27.8639 39.195 28.0629C39.138 28.1439 39.344 28.1979 39.344 28.2929Z" fill="white"/>
    <rect x="37" y="5" width="29.56" height="13.302" rx="2" fill="#FCC63A"/>
    <path d="M39.562 16.1676V7.31589H42.483C43.4525 7.31589 44.2154 7.55194 44.7718 8.02403C45.3366 8.49612 45.6191 9.14104 45.6191 9.95877C45.6191 10.7681 45.3366 11.4088 44.7718 11.8809C44.2154 12.3529 43.4525 12.589 42.483 12.589H41.3576V16.1676H39.562ZM42.5589 8.84598H41.3576V11.0589H42.5589C42.9383 11.0589 43.2333 10.962 43.4441 10.7681C43.6632 10.5742 43.7728 10.296 43.7728 9.93348C43.7728 9.59627 43.6632 9.33071 43.4441 9.13682C43.2333 8.94293 42.9383 8.84598 42.5589 8.84598Z" fill="#161616"/>
    <path d="M47.2306 16.1676V7.31589H49.9367C50.9062 7.31589 51.6734 7.55194 52.2382 8.02403C52.803 8.49612 53.0854 9.14104 53.0854 9.95877C53.0854 10.4899 52.959 10.9535 52.7061 11.3498C52.4616 11.7375 52.116 12.0368 51.6692 12.2476L54.4511 16.1676H52.3014L49.9494 12.589H49.0263V16.1676H47.2306ZM50.0379 8.84598H49.0263V11.0589H50.0379C50.4173 11.0589 50.7123 10.962 50.9231 10.7681C51.1338 10.5742 51.2392 10.296 51.2392 9.93348C51.2392 9.59627 51.1338 9.33071 50.9231 9.13682C50.7123 8.94293 50.4173 8.84598 50.0379 8.84598Z" fill="#161616"/>
    <path d="M59.5486 7.06299C60.2398 7.06299 60.8721 7.18944 61.4454 7.44235C62.0271 7.69525 62.5244 8.03246 62.9375 8.45397C63.3506 8.87548 63.6709 9.37287 63.8986 9.94612C64.1262 10.5109 64.24 11.1095 64.24 11.7418C64.24 12.374 64.1262 12.9768 63.8986 13.55C63.6709 14.1149 63.3506 14.608 62.9375 15.0295C62.5244 15.451 62.0271 15.7883 61.4454 16.0412C60.8721 16.2941 60.2398 16.4205 59.5486 16.4205C58.8573 16.4205 58.2208 16.2941 57.6391 16.0412C57.0574 15.7883 56.5601 15.451 56.147 15.0295C55.7339 14.608 55.4135 14.1149 55.1859 13.55C54.9583 12.9768 54.8445 12.374 54.8445 11.7418C54.8445 11.1095 54.9583 10.5109 55.1859 9.94612C55.4135 9.37287 55.7339 8.87548 56.147 8.45397C56.5601 8.03246 57.0574 7.69525 57.6391 7.44235C58.2208 7.18944 58.8573 7.06299 59.5486 7.06299ZM59.5486 14.7387C59.9616 14.7387 60.341 14.6628 60.6866 14.5111C61.0407 14.3509 61.34 14.1402 61.5845 13.8788C61.8374 13.609 62.0355 13.2929 62.1788 12.9304C62.3221 12.5595 62.3938 12.1633 62.3938 11.7418C62.3938 11.3202 62.3221 10.9282 62.1788 10.5657C62.0355 10.1948 61.8374 9.87868 61.5845 9.61734C61.34 9.34758 61.0407 9.13682 60.6866 8.98508C60.341 8.8249 59.9616 8.74482 59.5486 8.74482C59.1355 8.74482 58.7519 8.8249 58.3978 8.98508C58.0438 9.13682 57.7403 9.34758 57.4874 9.61734C57.2429 9.87868 57.049 10.1948 56.9057 10.5657C56.7624 10.9282 56.6907 11.3202 56.6907 11.7418C56.6907 12.1633 56.7624 12.5595 56.9057 12.9304C57.049 13.2929 57.2429 13.609 57.4874 13.8788C57.7403 14.1402 58.0438 14.3509 58.3978 14.5111C58.7519 14.6628 59.1355 14.7387 59.5486 14.7387Z" fill="#161616"/>
</svg>

<svg width="68" height="58" viewBox="6 0 68 58" fill="none" xmlns="http://www.w3.org/2000/svg"><path d="M46.992 19.098 31.998 10.42l-14.994 8.76a.6.6 0 0 0-.306.525v16.948a.67.67 0 0 0 .306.524l14.992 8.6 14.994-8.706a.67.67 0 0 0 .306-.524V19.626a.6.6 0 0 0-.304-.528" fill="#000091"/><path d="m26.641 19.598-5.029 8.628-4.557-9.175 5.39-3.113 4.489 3.16zm20.656 16.98V19.62a.6.6 0 0 0-.306-.523L31.998 10.42" fill="#FCC63A"/><path d="M16.7 36.578 32 10.42v35.362l-14.996-8.605a.67.67 0 0 1-.306-.524V19.706zm24.669-20.735 5.458 3.155-4.489 9.15-5.387-9.236z" fill="#0063CB"/><path d="m51.606 16.303-19.19-11.02a.93.93 0 0 0-.832 0l-19.19 11.02a.89.89 0 0 0-.394.695v22a.89.89 0 0 0 .394.7l19.189 11.02a.93.93 0 0 0 .832 0l19.191-11.02a.89.89 0 0 0 .394-.7v-22a.89.89 0 0 0-.394-.695M22.789 34.059h.079c-.042 0-.079.007-.079.05 0 .1.151 0 .2.1a.9.9 0 0 0-.629.276c0 .05.1.05.151.05-.075.1-.226.05-.277.152a.2.2 0 0 0 .1.05c-.05 0-.1 0-.1.05v.152c-.126 0-.176.1-.277.15.2.152.327 0 .528 0-.528.2-.956.479-1.484.63-.1 0 0 .15-.1.15.151.1.227-.05.377-.05-.654.378-1.333.7-2.037 1.133a.35.35 0 0 0-.1.2h-.2c-.1.05-.05.176-.151.277.226.15.5-.2.654 0 .05 0-.1.05-.2.05-.05 0-.05.1-.1.1h-.154c-.1.075-.2.126-.2.276a.22.22 0 0 0-.226.1 9 9 0 0 0 3.144-.578 7.7 7.7 0 0 0 2.088-1.56.2.2 0 0 1 .05.1c-.147.437-.43.816-.806 1.08-.277.152-.478.378-.7.479a4 4 0 0 0-.428.276q-.95.296-1.939.412l-.305.044q-.338.05-.671.108l-1.993-1.138a.65.65 0 0 1-.288-.411.6.6 0 0 0 .094-.063.3.3 0 0 0-.113-.071v-.65a12.8 12.8 0 0 0 3.038-.942 8.8 8.8 0 0 0-3.037-1.343v-1.515a12 12 0 0 1 1.639.392 6.4 6.4 0 0 1 1.182.578q.221.211.478.377a.91.91 0 0 0 .8.05h.33a3.96 3.96 0 0 0 1.937-.905c0 .05.05.05.1.05a3.6 3.6 0 0 1-.428 1.132c.003.05-.048.152.053.202m2.817 3.57c.251-.1.4-.276.629-.376-.05.05-.05.15-.1.2a3.7 3.7 0 0 0-.528.4 16 16 0 0 0-1.585 1.61c-.252.3-.528.578-.8.855q-.145.135-.31.245l-2.527-1.45q.542.046 1.076-.053.442-.124.855-.327v.1c.7-.277 1.232-.906 1.937-1.132.025 0 .126.1.226.05a1.88 1.88 0 0 1 1.509-.7c0 .05 0 .1.05.1h.025c-.151.126-.327.25-.5.377-.057.052-.007.102.043.102m-8.908-6.163v-.186a5.8 5.8 0 0 1 1.588-.188 1.5 1.5 0 0 1 .478 0 5.9 5.9 0 0 0-2.066.374m30.6 5.088a.67.67 0 0 1-.306.524l-10.079 5.85a32 32 0 0 1-3.408-1.184 2.83 2.83 0 0 1-.05-2.245q.12-.464.352-.883c.025-.025.05-.05.05-.076a.025.025 0 0 0 .025-.025 4 4 0 0 1 .377-.555l.015-.015.02-.021.015-.015c0-.025.025-.05.05-.076.025-.051.075-.076.1-.126q.265-.28.579-.5.32-.115.654-.177 1.217.09 2.415.328a.8.8 0 0 1 .277.1c.301.059.612.041.905-.05a1.14 1.14 0 0 0 .855-.706 1.21 1.21 0 0 0 .05-1.06c-.178-.275-.013-.436.181-.59l.068-.054q.13-.092.231-.216c.126-.252-.1-.4-.151-.63-.05-.1-.226-.05-.327-.2.352-.151.855-.43.629-.857-.151-.227-.377-.63-.1-.857.352-.2.855-.151 1.006-.48a1.14 1.14 0 0 0-.292-1.084l-.075-.108a5 5 0 0 1-.211-.32 7 7 0 0 0-.528-.757 4.3 4.3 0 0 1-.528-1.01c-.151-.377.05-.705.05-1.083a6.4 6.4 0 0 0-.327-2.144c-.126-.353-.176-.731-.327-1.06a1.1 1.1 0 0 0-.226-.58.37.37 0 0 1 0-.327q.308-.218.579-.48a.57.57 0 0 0-.2-.705c-.327-.151-.3.328-.528.429h-.151c-.05-.126.05-.177.151-.277 0-.05 0-.151-.05-.151-.2 0-.377-.051-.428-.151a3.96 3.96 0 0 0-1.861-1.286q.283.087.579.1c.338.071.69.036 1.006-.1.227-.076.277-.48.377-.706a.8.8 0 0 0-.151-.631 2.2 2.2 0 0 0-.906-.756 9 9 0 0 1-.679-.353 1 1 0 0 0-.251-.126c-2.965-1.485-9.069-.2-9.534 0h-.009a8 8 0 0 0-1.249.475 3.92 3.92 0 0 0-2.365 2.465 3.83 3.83 0 0 0-1.333 1.509c-.428.8-1.056 1.509-.956 2.414.1.78.277 1.484.428 2.289q.065.409.2.8c.1.276 0 .629.151.855.075.15.025.327.227.428v.2c.05.05.05.1.151.1v.2c.435.423.807.906 1.107 1.434.1.276-.478.15-.7.05a6 6 0 0 1-1.132-.956.2.2 0 0 0-.051.1c.2.352.906.78.528 1.006-.2.1-.428-.151-.629.05-.05.076 0 .177 0 .277-.277-.2-.578-.1-.855-.2-.2-.05-.252-.427-.478-.427a15 15 0 0 0-1.811-.327 15 15 0 0 0-1.739-.16V19.707a.6.6 0 0 1 .306-.524l14.987-8.761 14.994 8.677a.6.6 0 0 1 .306.524zm-7.954-8.261a.33.33 0 0 1-.282.149 3 3 0 0 0-.282.273c.1 0 0 .149.1.149-.205.223.077.694-.205.793-.37.099-.758.099-1.127 0a.7.7 0 0 1 .167-.016h.085a.38.38 0 0 0 .337-.132v-.2c0-.05-.051-.05-.1-.05a.16.16 0 0 1-.1.05.22.22 0 0 0-.154-.2.8.8 0 0 1-.718-.273.67.67 0 0 1 .436-.05c.128 0 .077-.223.231-.322h.154c.307-.372.871-.471.974-.843 0-.1-.282-.1-.487-.15a2.3 2.3 0 0 0-.82.05q-.541.075-1.051.274a3.2 3.2 0 0 1 .923-.471q.35-.135.718-.2l.132-.026.133-.027a.97.97 0 0 1 .556 0c.231.1.615.1.666.248.1.273-.154.545-.435.744-.057.08.149.135.149.23" fill="#fff"/><rect x="37" y="5" width="29.56" height="13.302" rx="2" fill="#FCC63A"/><path d="M39.562 16.168V7.316h2.921q1.454 0 2.289.708.847.708.847 1.935 0 1.214-.847 1.922-.835.708-2.289.708h-1.125v3.579zm2.997-7.322h-1.201v2.213h1.2q.57 0 .886-.29.33-.292.329-.836 0-.505-.329-.796-.316-.291-.885-.291m4.671 7.322V7.316h2.707q1.454 0 2.301.708t.847 1.935q0 .796-.379 1.39-.366.583-1.037.899l2.782 3.92h-2.15l-2.352-3.579h-.923v3.579zm2.808-7.322h-1.012v2.213h1.012q.57 0 .885-.29.315-.292.316-.836 0-.505-.316-.796t-.885-.291m9.511-1.783q1.036 0 1.896.38.874.379 1.492 1.011.62.632.962 1.492.34.848.341 1.796 0 .948-.341 1.808a4.5 4.5 0 0 1-.962 1.48q-.62.632-1.492 1.011a4.65 4.65 0 0 1-1.896.38 4.74 4.74 0 0 1-3.402-1.391 4.5 4.5 0 0 1-.961-1.48 4.9 4.9 0 0 1-.342-1.808q0-.949.342-1.796.341-.86.961-1.492.62-.633 1.492-1.012a4.7 4.7 0 0 1 1.91-.379m0 7.676a2.8 2.8 0 0 0 1.138-.228q.53-.24.898-.632.378-.405.594-.949a3.3 3.3 0 0 0 .215-1.188 3.2 3.2 0 0 0-.215-1.176 2.8 2.8 0 0 0-.595-.949 2.55 2.55 0 0 0-.897-.632 2.7 2.7 0 0 0-1.138-.24q-.62 0-1.151.24a2.7 2.7 0 0 0-.91.632 2.9 2.9 0 0 0-.582.949 3.2 3.2 0 0 0-.215 1.176q0 .632.215 1.188.215.544.581.949.38.392.91.632.532.228 1.152.228" fill="#161616"/></svg>
